X: 22575
T: Lady Mary Stopford
R: reel
M: 4/4
K: Dmajor
B|:AFdFA2FA|BGAF GEEG|FADF GBEd|1 ceac dDDB:|2 ceac dDDg||
fdadf2df|gfed ceAg|fdadf2df|gbag fddg|
fdadf2df|gfed ceA=c|B2GB ceAc|dfeg fdd||

